!!!COM: Music21
!!!OTL: Pasacorredoiras de Arnoia
!!!OMV: pezas_pasacorredoiras_pasacorredoiras-de-arnoia_pasacorredoiras-de-arnoia-partitura.musicxml
**kern
*part1
*staff1
*I"Bagpipes
*I'Bag
*clefG^2
*k[]
*M2/4
=1
!LO:TX:a:t=Andante
8ggL
8ggJ
8ggL
8ggJ
=
8ggL
8eeJ
8ccL
16eeL
16ffJJ
=
8ggL
16ffL
16eeJJ
16ddLL
16ee
16ff
16ggJJ
=
8aaL
8ggJ
8eeL
8ccJ
=
8ggL
8ggJ
8ggL
8ggJ
=
8ggL
8eeJ
8ccL
16eeL
16ffJJ
=
8ggL
16ffL
16eeJJ
16ddLL
16ee
16ff
16ddJJ
!!linebreak:original
=
8ccL
8ccJ
4cc
=||
*M2/4
!LO:TX:a:t=Andante
8ggL
8ggJ
8ggL
8ggJ
=
8ggL
8eeJ
8ccL
16eeL
16ffJJ
=
8ggL
16ffL
16eeJJ
16ddLL
16ee
16ff
16ggJJ
=
8aaL
8ggJ
8eeL
8ccJ
=
8ggL
8ggJ
8ggL
8ggJ
=
8ggL
8eeJ
8ccL
16eeL
16ffJJ
=
8ggL
16ffL
16eeJJ
16ddLL
16ee
16ff
16ddJJ
!!linebreak:original
=
8ccL
8ccJ
4cc
=||
4.gg
8ee
=
4.gg
8ee
=
4.ff
8dd
=
8aaL
8ggJ
8eeL
8ccJ
=
4.gg
8ee
=
4.gg
8ee
=
8ffL
8ddJ
8aaL
8ggJ
=
8ccL
8ccJ
4cc
=||
4.gg
8ee
!!linebreak:original
=
4.gg
8ee
=
4.ff
8dd
=
8aaL
8ggJ
8eeL
8ccJ
=
4.gg
8ee
=
4.gg
8ee
=
8ffL
8ddJ
8aaL
8ggJ
=
8ccL
8ccJ
8ccL
16ccL
16ffJJ
=||
16ggLL
16aa
16gg
16ffJJ
16eeLL
16ff
16ee
16ddJJ
=
8eeL
8eeJ
8eeL
16ddL
16ccJJ
!!linebreak:original
=
8ddL
8ggJ
8ddL
8ggJ
=
8eeL
8eeJ
8eeL
16eeL
16ffJJ
=||
16ggLL
16aa
16gg
16ffJJ
16eeLL
16ff
16ee
16ddJJ
=
8eeL
8eeJ
8eeL
16ddL
16ccJJ
=
8ddL
8ggJ
8ddL
8ggJ
=
8eeL
8eeJ
4ee
=||
8ggL
8eeJ
16eeLL
16ff
16gg
16aaJJ
=
8ggL
8eeJ
16eeLL
16ff
16gg
16eeJJ
!!linebreak:original
=
8ffL
8ddJ
16ddLL
16ee
16ff
16ddJJ
=
16eeLL
16dd
16ee
16ffJJ
4gg
=
8ggL
8eeJ
16eeLL
16ff
16gg
16aaJJ
=
8ggL
8eeJ
16eeLL
16ff
16gg
16eeJJ
=
8ffL
8ddJ
16ggLL
16ff
16ee
16ddJJ
=
8eeL
8eeJ
4ee
=||
8ggL
8eeJ
16eeLL
16ff
16gg
16aaJJ
!!pagebreak:original
=
8ggL
8eeJ
16eeLL
16ff
16gg
16eeJJ
=
8ffL
8ddJ
16ddLL
16ee
16ff
16ddJJ
=
16eeLL
16dd
16ee
16ffJJ
4gg
=
8ggL
8eeJ
16eeLL
16ff
16gg
16aaJJ
=
8ggL
8eeJ
16eeLL
16ff
16gg
16eeJJ
=
8ffL
8ddJ
16ggLL
16ff
16ee
16ddJJ
=||
8ccL
8ccJ
4cc
==
*-
!!!system-decoration: s1,s2
